X:2916
T:Chemong Causeway Reel
R:Reel
C:Bruce Osborne  --  Dec.5 1991
M:2/4
L:1/16
K:F
cB|:AFAc dcAc|fefg afcf|eceg bgeg|fefg afcB|!
AFAc dcAc|fefg afcf|eceg bgeg|(3fgfeg f2cB:|!
K:Bb
B,2DF BFDF|(3BcBAc B2B2|bBAB fBAB|bBAB [F2c2][F2c2]|!
B,2DF BFDF|(3BcBAc B2FE|DFBd cBAc|(3BcBAc B4:|!


